X: 0574
T: SMITH'S HORNPIPE
B: Oliver Ditson "The Boston Collection of Instrumental Music" 1910 p.57 #4
F: http://conquest.imslp.info/files/imglnks/usimg/8/8f/IMSLP175643-PMLP309456-bostoncollection00bost_bw.pdf
M: 2/4
L: 1/16
K: D
A2 |\
dcdA Bcde | gfed cBAG | FA df gfed | c2A2 A2Bc |\
dAeA fAgA | gfed dcBA | dfeg faeg | f2d2d2 :|
|: fg |\
agfe dfga | b2e2e2 ed | cAeA fAed | c2A2 A2Bc |\
dAeA fAgA | afbe dcBA | dfeg faeg | f2d2d2 :|

%%sep 1 1 500
%%sep 1 1 500
